X: 1128
T: Hüzzam Seyir
C: Rauf Yektâ
O: Turkey
F: http://compmusic.upf.edu/node/140
N: huzzam--seyir--semai--1--rauf_yekta
N: makam= huzzam
N: form= seyir
N: usul= semai = 3/4
M: 3/4
L: 1/16
K: C _1/4B _3/4e ^3/4f 
Q: 1/4=120
%%MIDI tuningsystem comma53
c8 d4  | d8 e4  | d8 c4  | B8 z4  | c8 d4  | e4 f4 g4  | \
w:   |   |   |   |   |   | 
f4 e4 d4  | d8 z4  | d8 g4  | g4 f4 e4  | 
w:   |   |   |   | 
d4 c4 d4  | e8 z4  | z4 d4 e4  | f4 e4 d4  | \
w:   |   |   |   | 
d8 c4  | B8 z4  | B8 b4  | b8 z4  | c'4 b4 ^a4  | 
w:   |   |   |   |   | 
b8 z4  | g8 c'4  | c'4 b4 ^a4  | ^a4 g4 f4  | \
w:   |   |   |   | 
f8 z4  | d8 g4  | g4 f4 e4  | d4 c4 d4  | e8 z4  | 
w:   |   |   |   |   | 
z4 d4 e4  | f4 e4 d4  | d8 c4  | B8 z4  | |


